packages/kaspersky-hexa-ui-icons/src/iconsSVGs/48/Krs.svg

<svg width="48" height="48" viewBox="0 0 48 48" fill="none" xmlns="http://www.w3.org/2000/svg">
<path fill="currentColor" fill-rule="evenodd" clip-rule="evenodd" d="M10.872 26.4505L3.071 30.9055L27.429 44.8225L33.879 41.1365L31.17 36.4405C25.302 37.6535 18.958 35.9905 14.405 31.4355C12.9562 29.9834 11.7615 28.2983 10.871 26.4505H10.872ZM24.194 24.8805L20.962 21.6505L20.363 22.2455L19.248 23.3645L17.808 22.7145C16.4213 22.0923 14.9189 21.7696 13.399 21.7675C13.089 21.7675 12.784 21.8135 12.478 21.8435C13.098 24.5695 14.44 27.1635 16.56 29.2815C17.156 29.8722 17.8006 30.4118 18.487 30.8945C18.943 31.2215 19.411 31.5215 19.891 31.7925C19.976 31.8395 20.057 31.8945 20.142 31.9425C20.722 32.2525 21.316 32.5175 21.922 32.7505C22.02 32.7875 22.119 32.8195 22.218 32.8535C22.772 33.0535 23.335 33.2185 23.903 33.3515L23.983 33.3715C24.145 31.5765 23.898 29.7395 23.129 28.0365L22.479 26.5965L23.597 25.4795L24.194 24.8805V24.8805ZM12.346 15.4785C12.159 16.4485 12.065 17.4325 12.065 18.4165C12.065 18.7985 12.09 19.1795 12.119 19.5605C12.5441 19.5128 12.9713 19.4871 13.399 19.4835C15.225 19.4835 17.052 19.8655 18.748 20.6325L20.962 18.4185L23.656 21.1125L26.888 17.8805L27.966 18.9575L24.734 22.1875L27.428 24.8805L25.214 27.0945C26.157 29.1845 26.475 31.4695 26.253 33.7105C26.894 33.7585 27.539 33.7715 28.182 33.7405C28.212 33.7385 28.242 33.7385 28.272 33.7355C31.7595 33.5506 35.0787 32.1779 37.678 29.8455C37.886 29.6555 38.098 29.4825 38.298 29.2815C41.669 25.9115 43.144 21.3515 42.722 16.9415C42.5805 15.4616 42.2259 14.0099 41.669 12.6315C40.899 10.7277 39.7528 8.99889 38.299 7.5485C36.8732 6.11926 35.1787 4.98626 33.3132 4.2148C31.4476 3.44334 29.4478 3.04866 27.429 3.0535C24.9382 3.04962 22.484 3.65195 20.278 4.8085C18.9072 5.52846 17.6536 6.45232 16.56 7.5485C14.3921 9.70956 12.9239 12.4725 12.346 15.4785V15.4785ZM46.518 45.8315L38.977 32.7585C37.5274 33.9276 35.9077 34.8685 34.174 35.5485L41.707 48.6085L44.927 48.6285L46.517 45.8315H46.518ZM51.788 30.9055L43.975 26.4425C43.2531 27.937 42.3313 29.3264 41.235 30.5725L43.995 35.3585L51.787 30.9055H51.788ZM54.858 30.9055V40.7025L49.005 44.0435L50.029 45.8195L46.695 51.6855L39.94 51.6435L38.89 49.8225L27.43 56.3715L0 40.7015V30.9055L10.254 25.0485C7.714 18.4585 9.09 10.7065 14.405 5.3925C21.598 -1.7975 33.259 -1.7975 40.453 5.3925C45.768 10.7065 47.127 18.4505 44.583 25.0355L54.858 30.9055V30.9055ZM36.586 10.3375L32.275 14.6475L31.198 13.5695L35.508 9.2595L36.586 10.3375V10.3375ZM32.684 24.8955L31.212 25.2905L29.635 19.4035L31.107 19.0095L32.684 24.8955V24.8955ZM29.529 13.1225L28.057 13.5175L26.48 7.6305L27.95 7.2365L29.53 13.1225H29.529ZM32.329 17.7875L32.723 16.3155L38.609 17.8925L38.215 19.3645L32.328 17.7875H32.329ZM26.835 14.7375L26.44 16.2095L20.552 14.6325L20.947 13.1605L26.835 14.7375Z" />
</svg>

<svg xmlns="http://www.w3.org/2000/svg" width="48" height="48" fill="none" viewBox="0 0 48 48"><path fill="currentColor" fill-rule="evenodd" d="m10.872 26.4505-7.801 4.455 24.358 13.917 6.45-3.686-2.709-4.696c-5.868 1.213-12.212-.45-16.765-5.005a18.32 18.32 0 0 1-3.534-4.985zm13.322-1.57-3.232-3.23-.599.595-1.115 1.119-1.44-.65a10.81 10.81 0 0 0-4.409-.947c-.31 0-.615.046-.921.076.62 2.726 1.962 5.32 4.082 7.438a15 15 0 0 0 1.927 1.613c.456.327.924.627 1.404.898.085.047.166.102.251.15.58.31 1.174.575 1.78.808.098.037.197.069.296.103.554.2 1.117.365 1.685.498l.08.02c.162-1.795-.085-3.632-.854-5.335l-.65-1.44 1.118-1.117zm-11.848-9.402c-.187.97-.281 1.954-.281 2.938 0 .382.025.763.054 1.144a12.4 12.4 0 0 1 1.28-.077c1.826 0 3.653.382 5.349 1.149l2.214-2.214 2.694 2.694 3.232-3.232 1.078 1.077-3.232 3.23 2.694 2.693-2.214 2.214c.943 2.09 1.261 4.375 1.039 6.616.641.048 1.286.061 1.929.03.03-.002.06-.002.09-.005a15.296 15.296 0 0 0 9.406-3.89c.208-.19.42-.363.62-.564 3.371-3.37 4.846-7.93 4.424-12.34a15.43 15.43 0 0 0-1.053-4.31 15.265 15.265 0 0 0-3.37-5.083 15.303 15.303 0 0 0-10.87-4.495 15.35 15.35 0 0 0-7.151 1.755 15.3 15.3 0 0 0-3.718 2.74 15.267 15.267 0 0 0-4.214 7.93m34.172 30.353-7.541-13.073a18.29 18.29 0 0 1-4.803 2.79l7.533 13.06 3.22.02 1.59-2.797zm5.27-14.926-7.813-4.463a18.3 18.3 0 0 1-2.74 4.13l2.76 4.786 7.792-4.453zm3.07 0v9.797l-5.853 3.341 1.024 1.776-3.334 5.866-6.755-.042-1.05-1.821-11.46 6.549L0 40.7015v-9.796l10.254-5.857c-2.54-6.59-1.164-14.342 4.151-19.656 7.193-7.19 18.854-7.19 26.048 0 5.315 5.314 6.674 13.058 4.13 19.643zm-18.272-20.568-4.311 4.31-1.077-1.078 4.31-4.31zm-3.902 14.558-1.472.395-1.577-5.887 1.472-.394zm-3.155-11.773-1.472.395-1.577-5.887 1.47-.394 1.58 5.886zm2.8 4.665.394-1.472 5.886 1.577-.394 1.472-5.887-1.577zm-5.494-3.05-.395 1.472-5.888-1.577.395-1.472z" clip-rule="evenodd"/></svg>
